X: 5
T: The Banks Of Newfoundland
R: jig
M: 6/8
L: 1/8
K: Gmaj
|:d/c/|B3 AGE | GB/c/d gfe | df/g/d BGA | BAA Adc |
BAG AGE | GB/c/d gfe | df/g/d BGA | BGG G2 :||
|:B/c/| d2g gfg | eaa aga | bge dBG |BAG A2B/c/ |
d2g g3 | eaa aga | bge dBG | AGF G2 B/c/ |
d2g gfg | eaa aga | bge dBG |BAG A2 d/c/ |
BAG AGE | GB/c/d gfe | ded BGA | BGG G2||


Tune 3172	Setting 16267

